X: 80
T: Squirrel Heads and Gravy
B: canberra pickers and fiddlers
B: old time tunes update
B: tunes
M:4/4
L:1/8
R: reel
Q: 1/4=100
K:G
V:1 
"G"G2G2 EDEF|G2G2 EDEF|G2 GG E2G2|"D"A3B A2 AA|
"G"B2 BB A2G2|"C"GAGF E2 EE|"G"D2 EF G2D2|"D"BG A2 "G"G4:|
|:"G"d2 de dcBc|d2 de d2 Bc|d2 de dc B2|"D"A3B A2 Bc|
"G"d2 de dcB2|"C"cBcd e4|"G"d2 ef g2d2|"D"BG A2 "G"G4:|
% abcbook-tune_id 67a7d9ec9b7a32060cc514e1
% abcbook-tune_composer_id 
% abcbook-link-0 https://www.youtube.com/watch?v=VcjvY5ujMLQ
% abcbook-link-title-0 Squirrel Heads and Gravy
% abcbook-boost 0
% abcbook-difficulty 0
% abcbook-tags old time tunes
% abcbook-tablature 
% abcbook-transpose 
% abcbook-tuning AEAE
% abcbook-lastupdated 1739273464951
% abcbook-src-url 
% abcbook-soundfonts 
% abcbook-repeats 1


